X:1
T:Title
%%score 1 2 3 4
L:1/8
Q:1/4=120
M:4/4
K:Eb
V:1 treble nm="Trompeta en Do, SmartMusic SoftSynth" snm="Tpt. Do"
V:2 bass nm="Trombón, SmartMusic SoftSynth" snm="Tbn."
V:3 bass nm="Trombón, SmartMusic SoftSynth" snm="Tbn."
V:4 bass nm="Trombón, SmartMusic SoftSynth" snm="Tbn."
V:1
 z8 | z8 | z8 | z8 | z8 | z8 | z8 | z8 | z8 | z8 | z8 | z8 | z8 | z8 | z8 | z8 | z8 | z8 | z8 | %19
 z8 | z8 | z8 | z8 | z8 | CDEF GE G2 | _GD G2 FD F2 | CDEF GEGc | BGEG B4 | CDEF GE G2 | %29
 _GD G2 FD F2 | CDEF GEGc | BGEG B4 | G=A=Bc dB d2 | e=B e2 dB d2 | G=A=Bc dB d2 | e=B e2 d2 z2 | %36
 z2 d/_d/=d z2 d/_d/=d | z2 e/d/e z2 d/_d/=d | z2 d/_d/=d z2 d/_d/=d | z2 c/=B/c z2 d/_d/=d | %40
 CDEF GE G2 | _GD G2 F_D F2 | CDEF GEGc | BGEG B2 z2 | CDEF GE G2 | _GD G2 F_D F2 | CDEF GEGc | %47
 GEGc C2 z2 | CDEF GE G2 | _GD G2 F_D F2 | CDEF GEGc | BGEG B2 z2 | CDEF GE G2 | _GD G2 F_D F2 | %54
 CDEF GEGc | GEGc C2 z2 | z8 | z8 | z8 | z8 | z8 | z8 | z8 | z8 | [Cc][Dd][Ee][Ff] [Gg][Ee] [Gg]2 | %65
 [_G_g][Dd] [Gg]2 [Ff][_D_d] [Ff]2 | [Cc][Dd][Ee][Ff] [Gg][Ee][Gg][cc'] | [B,b]geg [B,b]4 | %68
 cdef ge g2 | _gd g2 f_d f2 | cdef gegc' | gegc' c4 | z _g z2 z4 | z _g z2 z4 | %74
 C/ z/8 D3/8 z/8 E3/8F/ G/E/G/c/ =B/G/B/d/ c2 | z _g z2 z4 | z _g z2 z4 | %77
 C/ z/8 D3/8 z/8 E3/8F/ G/E/G/c/ =B/G/B/d/ c2 | z _g z2 z4 | z _g z2 z4 | z _ggg gggg | %81
 ._g2 z2 z4 | z _g z2 z4 |] %83
V:2
 C,D,E,F, G,E, G,2 | _G,D, G,2 F,D, F,2 | C,D,E,F, G,E,G,C | B,G,E,G, B,4 | C,D,E,F, G,E, G,2 | %5
 _G,D, G,2 F,D, F,2 | C,D,E,F, G,E,G,C | B,G,E,G, B,4 | z2 D,2 z2 D,2 | z2 =B,,2 z2 D,2 | %10
 z2 D,2 z2 D,2 | z2 =B,,2 z2 D,2 | G,=A,=B,C DB, D2 | E=B, E2 DB, D2 | G,=A,=B,C DB, D2 | %15
 E=B, E2 D2 z2 | z8 | z8 | z8 | z8 | z8 | z8 | z2 [C,C]2 [B,,B,]2 [A,,A,]2 | %23
 [G,,G,]2 [F,,F,]2 [E,,E,]2 [D,,D,]2 | z2 G,/F,/G, z2 G,/F,/G, | z2 G,/F,/G, z2 G,/F,/G, | %26
 z2 G,/F,/G, z2 G,/F,/G, | z2 B,/=A,/B, z2 B,/A,/B, | z2 G,/F,/G, z2 G,/F,/G, | %29
 z2 G,/F,/G, z2 G,/F,/G, | z2 G,/F,/G, z2 G,/F,/G, | z2 B,/=A,/B, z2 B,/A,/B, | %32
 z2 D/_D/=D z2 D/_D/=D | z2 E/D/E z2 D/_D/=D | z2 D/_D/=D z2 D/_D/=D | z2 C/=B,/C z2 D/_D/=D | %36
 z2 D/_D/=D z2 D/_D/=D | z2 E/D/E z2 D/_D/=D | z2 D/_D/=D z2 D/_D/=D | z2 C/=B,/C z2 D/_D/=D | %40
 C,2 z2 C,2 z2 | C,2 z2 C,2 z2 | C,2 z2 C,2 z2 | E,2 z2 E,2 z2 | C,2 z2 C,2 z2 | C,2 z2 C,2 z2 | %46
 C,2 C2 B,2 A,2 | G,2 F,2 E,2 D,2 | C,D,E,F, G,E, G,2 | _G,D, G,2 F,_D, F,2 | C,D,E,F, G,E,G,C | %51
 B,G,E,G, B,2 z2 | C,D,E,F, G,E, G,2 | _G,D, G,2 F,_D, F,2 | C,D,E,F, G,E,G,C | G,E,G,C C,2 z2 | %56
 G,,F,,E,,D,, G,,F,,E,,D,, | E,,D,,E,,F,, G,,F,,E,,D,, | G,,F,,E,,D,, G,,F,,E,,D,, | %59
 E,,D,,E,,F,, G,,F,,E,,D,, | G,,_G,,=E,,D,, =G,,_G,,E,,D,, | =E,,D,,E,,_G,, =G,,_G,,E,,D,, | %62
 G,,_G,,=E,,D,, =G,,_G,,E,,D,, | =E,,D,,E,,_G,, =G,,_G,,E,,D,, | C4 C4 | C4 C4 | C4 C4 | E4 E4 | %68
 CDEF GE G2 | _GD G2 F_D F2 | CDEF GEGc | GEGc C4 | z C z2 z4 | z C z2 z4 | %74
 C,/ z/8 D,3/8 z/8 E,3/8F,/ G,/E,/G,/C/ =B,/G,/B,/D/ C2 | z C z2 z4 | z C z2 z4 | %77
 C,/ z/8 D,3/8 z/8 E,3/8F,/ G,/E,/G,/C/ =B,/G,/B,/D/ C2 | z C z2 z4 | z C z2 z4 | z CCC CCCC | %81
 .C2 z2 z4 | z C z2 z4 |] %83
V:3
 C,2 G,,2 C,2 G,,2 | C,2 G,,2 C,2 G,,2 | C,2 G,,2 C,2 G,,2 | E,,2 B,,2 E,,2 B,,2 | %4
 C,2 G,,2 C,2 G,,2 | C,2 G,,2 C,2 G,,2 | C,2 G,,2 C,2 G,,2 | E,,2 B,,2 E,,2 B,,2 | %8
 G,,=A,,=B,,C, D,B,, D,2 | E,=B,, E,2 D,B,, D,2 | G,,=A,,=B,,C, D,B,, D,2 | E,=B,, E,2 D,2 z2 | %12
 z2 D,2 z2 D,2 | z2 =B,,2 z2 D,2 | z2 D,2 z2 D,2 | z2 =B,,2 z2 D,2 | C,D,E,F, G,E, G,2 | %17
 _G,D, G,2 F,D, F,2 | C,D,E,F, G,E,G,C | B,G,E,G, B,4 | C,D,E,F, G,E, G,2 | _G,D, G,2 F,D, F,2 | %22
 C,D,E,F, G,E,G,C | B,G,E,G, B,4 | z2 G,2 z2 G,2 | z2 G,2 z2 G,2 | z2 G,2 z2 G,2 | z2 B,2 z2 B,2 | %28
 z2 G,2 z2 G,2 | z2 G,2 z2 G,2 | z2 G,2 z2 G,2 | z2 B,2 z2 B,2 | G,,2 z2 G,,2 z2 | %33
 E,,2 z2 G,,2 z2 | G,,2 z2 G,,2 z2 | E,,2 z2 G,,2 z2 | G,,2 z2 G,,2 z2 | E,,2 z2 G,,2 z2 | %38
 G,,2 z2 G,,2 z2 | E,,2 z2 G,,2 z2 | (3C,_G,,=G,, (3E,_G,,=G,, (3C,_G,,=G,, (3E,_G,,=G,, | %41
 (3C,_G,,=G,, (3D,_G,,=G,, (3C,_G,,=G,, (3_D,_G,,=G,, | %42
 (3C,_G,,=G,, (3E,_G,,=G,, (3C,_G,,=G,, (3E,_G,,=G,, | %43
 (3C,=A,,B,, (3E,A,,B,, (3C,A,,B,, (3E,A,,B,, | %44
 (3C,_G,,=G,, (3E,_G,,=G,, (3C,_G,,=G,, (3E,_G,,=G,, | %45
 (3C,_G,,=G,, (3D,_G,,=G,, (3C,_G,,=G,, (3_D,_G,,=G,, | (3C,_G,,=G,, C,2 B,,2 A,,2 | %47
 [G,,G,]2 [F,,F,]2 [E,,E,]2 [D,,D,]2 | C,4 C,4 | C,4 C,4 | C,4 C,4 | E,4 E,4 | C,4 C,4 | C,4 C,4 | %54
 C,4 C,4 | E,4 E,4 | G,=A,=B,C DB, D2 | E=B, E2 DB, D2 | G,=A,=B,C DB, D2 | E=B, E2 D4 | %60
 G,=A,=B,C DB, D2 | =E=B, E2 DB, D2 | G,=A,=B,C DB, D2 | =E=B, E2 D4 | %64
 [C,,C,][D,,D,][E,,E,][F,,F,] [G,,G,][E,,E,] [G,,G,]2 | %65
 [_G,,_G,][D,,D,] [G,,G,]2 [F,,F,][_D,,_D,] [F,,F,]2 | %66
 [C,,C,][D,,D,][E,,E,][F,,F,] [G,,G,][E,,E,][G,,G,][C,C] | [B,,,B,]G,E,G, [B,,,B,]4 | CCCC CC E2 | %69
 CC D2 CC _D2 | CCCC CCCC | CCCC C2 z2 | z A, z2 z4 | z A, z2 z4 | A,G,G,G, G,G, C2 | z A, z2 z4 | %76
 z A, z2 z4 | A,G,G,G, G,G, C2 | z A, z2 z4 | z A, z2 z4 | z A,A,A, A,A,A,A, | .A,2 z2 z4 | %82
 z A, z2 z4 |] %83
V:4
 z8 | z8 | z8 | z8 | z8 | z8 | z8 | z8 | G,,2 z2 G,,2 z2 | G,,2 z2 G,,2 z2 | G,,2 z2 G,,2 z2 | %11
 G,,2 z2 G,,2 z2 | G,,2 z2 G,,2 z2 | G,,2 z2 G,,2 z2 | G,,2 z2 G,,2 z2 | G,,2 z2 G,,2 z2 | %16
 C,2 G,,2 C,2 G,,2 | C,2 G,,2 C,2 G,,2 | C,2 G,,2 C,2 G,,2 | E,,2 B,,2 E,,2 B,,2 | %20
 C,2 G,,2 C,2 G,,2 | C,2 G,,2 C,2 G,,2 | C,2 [C,C]2 [B,,B,]2 [A,,A,]2 | %23
 [G,,G,]2 [F,,F,]2 [E,,E,]2 [D,,D,]2 | C,2 z2 C,2 z2 | C,2 z2 C,2 z2 | C,2 z2 C,2 z2 | %27
 E,2 z2 E,2 z2 | C,2 z2 C,2 z2 | C,2 z2 C,2 z2 | C,2 z2 C,2 z2 | E,2 z2 E,2 z2 | G,=A,=B,C DB, D2 | %33
 E=B, E2 DB, D2 | G,=A,=B,C DB, D2 | E=B, E2 D2 z2 | G,=A,=B,C DB, D2 | E=B, E2 DB, D2 | %38
 G,=A,=B,C DB, D2 | E=B, E2 D2 z2 | z2 G,2 z2 G,2 | z2 G,2 z2 G,2 | z2 G,2 z2 G,2 | z2 G,2 z2 G,2 | %44
 z2 G,2 z2 G,2 | z2 G,2 z2 G,2 | z2 C2 B,2 A,2 | G,2 F,2 E,2 D,2 | C,B,,A,,G,, C,B,,A,,G,, | %49
 C,B,,A,,G,, C,B,,A,,G,, | C,B,,A,,G,, C,B,,A,,G,, | E,D,C,B,, E,D,C,B,, | %52
 C,B,,A,,G,, C,B,,A,,G,, | C,B,,A,,G,, C,B,,A,,G,, | C,B,,A,,G,, C,B,,A,,G,, | %55
 E,D,C,B,, E,D,C,B,, | G,4 G,2 G,2 | =B,2 G,2 B,2 G,2 | G,4 G,2 G,2 | =B,2 G,2 G,4 | G,4 G,2 G,2 | %61
 =B,2 G,2 B,2 G,2 | G,4 G,2 G,2 | =B,2 G,2 G,4 | C,B,,A,,G,, C,B,,A,,G,, | %65
 C,B,,A,,G,, C,B,,A,,G,, | C,B,,A,,G,, C,B,,A,,G,, | E,D,C,B,, E,D,C,B,, | %68
 C,B,,A,,G,, C,B,,A,,G,, | C,B,,A,,G,, C,B,,A,,G,, | C,B,,A,,G,, C,B,,A,,G,, | %71
 C,B,,A,,G,, C,B,,A,,G,, | C,E, z2 z4 | C,E, z2 z4 | A,,E,,G,,E,, G,,F,, C,2 | C,E, z2 z4 | %76
 C,E, z2 z4 | A,,E,,G,,E,, G,,F,, C,2 | C,E, z2 z4 | C,E, z2 z4 | C,E,E,E, E,E,E,E, | E,8 | %82
 C,E, z2 z4 |] %83

